Origami/22x22/apps/the-witcher-2.svg

<svg width="22" height="22" version="1.1" viewBox="0 0 22 22" xmlns="http://www.w3.org/2000/svg">
 <circle cx="11" cy="11.5" r="10" style="opacity:.2"/>
 <circle cx="11" cy="11" r="10" style="fill:#c44652"/>
 <path d="m6 3.4999494v2.0000001l-0.8466795 0.9560545c-1.2539602 0.745036-2.1990506 1.2489615-3.1533205 2.0439455l2 1.0000005-3.5 2 4 0.5-3.5 3.999999 4-0.999999v0.999999l2-0.5-0.5 1.5 3.5-1.5h2l3.5 1.5-0.5-1.5 2 0.5v-0.999999l4 0.999999-3.5-3.999999 4-0.5-3.5-2 2-1.0000005c-0.95427-0.794984-1.899361-1.2989095-3.153321-2.0439455l-0.846679-0.9560545v-2.0000001l-2 1.0000001v-0.5000001l-1 0.5000001v-0.5000001l-2 0.5000001-2-0.5000001v0.5000001l-1-0.5000001v0.5000001z" style="opacity:.2"/>
 <path d="M 11,1 A 10,10 0 0 0 1,11 10,10 0 0 0 1.01075,11.291 10,10 0 0 1 11,1.5 10,10 0 0 1 20.9895,11.209 10,10 0 0 0 21,11 10,10 0 0 0 11,1 Z" style="fill:#ffffff;opacity:.2"/>
 <path d="m6 3v2l-0.8466795 0.9560545c-1.2539602 0.745036-2.1990506 1.2489615-3.1533205 2.0439455l2 1-3.5 2 4 0.5-3.5 4 4-1v1l2-0.5-0.5 1.5 3.5-1.5h2l3.5 1.5-0.5-1.5 2 0.5v-1l4 1-3.5-4 4-0.5-3.5-2 2-1c-0.95427-0.794984-1.899361-1.2989095-3.153321-2.0439455l-0.846679-0.9560545v-2l-2 1v-0.5l-1 0.5v-0.5l-2 0.5-2-0.5v0.5l-1-0.5v0.5z" style="fill:#393939"/>
 <path d="m4 2.4999497-0.9973445 0.78125c-0.036999 1.1865805 0.3177607 2.240657 0.7437939 3.2714845 0.7407736 1.7177505 2.7424224 3.3561598 3.9502319 4.4125698 0.7662898 0.686448 0.9727114 1.291736 1.0823554 1.896484 0.127008 0.700522 0.203641 1.459974 0.2833503 2.628907 0.266544 1.521169 0.411787 2.999286 0.611494 3.82571 0.182953 0.191776 1.326119 0.183594 1.326119 0.183594s1.143167 0.0082 1.32612-0.183594c0.199707-0.826424 0.344951-2.304541 0.611494-3.82571 0.07971-1.168933 0.156342-1.928385 0.28335-2.628907 0.109644-0.604748 0.316065-1.210036 1.082356-1.896484 1.207808-1.05641 3.209458-2.6948193 3.950231-4.4125698 0.426033-1.0308275 0.780793-2.084904 0.743794-3.2714845l-0.997345-0.78125v0.7792969l-2.996639 2.2744141-4.003361-0.053711-4.0033598 0.053711-2.9966402-2.2744141z" style="opacity:.2"/>
 <path d="m 4,2.0000005 -0.9973445,0.78125 c -0.036999,1.1865805 0.3177607,2.240657 0.7437939,3.2714845 0.7407736,1.7177505 2.7424224,3.35616 3.9502319,4.41257 0.7662898,0.686448 0.9727114,1.291736 1.0823554,1.896484 0.127008,0.700522 0.203641,1.459974 0.2833503,2.628907 0.266544,1.521169 0.411787,2.999286 0.611494,3.82571 C 9.856834,19.008182 11,19 11,19 c 0,0 1.143167,0.0082 1.32612,-0.183594 0.199707,-0.826424 0.344951,-2.304541 0.611494,-3.82571 0.07971,-1.168933 0.156342,-1.928385 0.28335,-2.628907 0.109644,-0.604748 0.316065,-1.210036 1.082356,-1.896484 1.207808,-1.05641 3.209458,-2.6948195 3.950231,-4.41257 0.426033,-1.0308275 0.780793,-2.084904 0.743794,-3.2714845 L 18,2.0000005 V 2.7792974 L 15.003361,5.0537115 11,5.0000005 6.9966402,5.0537115 4,2.7792974 Z" style="fill:#505050"/>
 <path d="M 7.133956,7.1776775 A 1.6679336,1.6679336 0 0 0 7,7.832016 1.6679336,1.6679336 0 0 0 8.6679335,9.49995 1.6679336,1.6679336 0 0 0 10,8.8323845 Z" style="opacity:.2"/>
 <path d="M 7.133956,6.677728 A 1.6679336,1.6679336 0 0 0 7,7.3320665 1.6679336,1.6679336 0 0 0 8.6679335,9 1.6679336,1.6679336 0 0 0 10,8.332435 Z" style="fill:#eb6b00"/>
 <path d="M 14.866044,7.1776775 A 1.6679336,1.6679336 0 0 1 15,7.832016 1.6679336,1.6679336 0 0 1 13.332067,9.49995 1.6679336,1.6679336 0 0 1 12,8.8323845 Z" style="opacity:.2"/>
 <path d="M 14.866044,6.677728 A 1.6679336,1.6679336 0 0 1 15,7.3320665 1.6679336,1.6679336 0 0 1 13.332067,9 1.6679336,1.6679336 0 0 1 12,8.332435 Z" style="fill:#eb6b00"/>
 <path d="m12.5 11.989258c-0.520728 0.20921-0.96508 0.541721-1.5 0.5v0.010742c-0.53492 0.04172-0.979272-0.29079-1.5-0.5l0.512696 5.454101c0.03907 0.408029 0.04785 0.46255 0.388671 0.5 0.222722 0.03742 0.393713 0.051624 0.598633 0.045899v-0.01074c0.20492 0.0057 0.375911-0.0085 0.598633-0.0459 0.340829-0.03745 0.349607-0.09099 0.388671-0.499023z" style="opacity:.4"/>
 <path d="m10.5 16.489207c-0.217046 0.178857-0.406667 0.414354-0.561523 0.675781l0.07422 0.789063c0.03907 0.408028 0.04785 0.46255 0.388671 0.5 0.07223 0.01214 0.133974 0.01803 0.198242 0.02539h0.71582c0.08949-0.0077 0.180028-0.0188 0.283203-0.03614 0.340829-0.03745 0.349607-0.09099 0.388672-0.499024l0.07324-0.780273c-0.154732-0.260964-0.343813-0.496199-0.560545-0.674797v1h-1z" style="opacity:.2"/>
 <path d="m10.5 15.989258c-0.217046 0.178856-0.406667 0.414353-0.561523 0.675781l0.07422 0.789062c0.03907 0.408029 0.04785 0.46255 0.388671 0.5 0.07223 0.01213 0.133974 0.01803 0.198242 0.02539h0.71582c0.08949-0.0077 0.180028-0.0188 0.283203-0.03614 0.340829-0.03745 0.349607-0.091 0.388672-0.499023l0.07324-0.780274c-0.154732-0.260963-0.343813-0.496198-0.560545-0.674796v1h-1z" style="fill:#ffffff"/>
 <path d="m12.5 12.489207c-0.520728 0.209211-0.96508 0.541722-1.5 0.5v0.01074c-0.534208 0.04167-0.978214-0.289764-1.498047-0.499023 0.05801 0.702664 0.437833 1.537379 0.998047 1.999023v-1h1v1c0.563278-0.464169 0.945233-1.305698 1-2.010742z" style="opacity:.2"/>
 <path d="m12.5 11.989258s-0.971813 0.508988-1.5 0.510742c-0.526321 0.0017-1.498047-0.499002-1.498047-0.499002 0.058006 0.702643 0.437833 1.537358 0.998047 1.999002v-1h1v1c0.563278-0.46417 0.945233-1.305698 1-2.010742z" style="fill:#ffffff"/>
 <path d="M 7.133789,6.6777345 A 1.6679336,1.6679336 0 0 0 7,7.332031 1.6679336,1.6679336 0 0 0 7.02051,7.5810545 1.6679336,1.6679336 0 0 1 7.133791,7.1777345 l 2.550782,1.472656 A 1.6679336,1.6679336 0 0 0 10,8.332031 Z" style="fill:#ffffff;opacity:.1"/>
 <path d="M 14.866211,6.6777345 12,8.332031 a 1.6679336,1.6679336 0 0 0 0.31543,0.3183595 l 2.550781,-1.472656 a 1.6679336,1.6679336 0 0 1 0.113281,0.40332 A 1.6679336,1.6679336 0 0 0 15,7.332031 1.6679336,1.6679336 0 0 0 14.866211,6.6777345 Z" style="fill:#ffffff;opacity:.1"/>
 <path d="M 4,2 3.0019531,2.78125 c -0.00515,0.1650356 0.014289,0.3222188 0.023437,0.4824219 L 4,2.5 Z m 14,0 v 0.5 l 0.974609,0.7636719 c 0.0091,-0.1602031 0.02858,-0.3173863 0.02344,-0.4824219 z M 4,2.7792969 v 0.5 L 6.9960938,5.5527344 11,5.5 15.003906,5.5527344 18,3.2792969 v -0.5 L 15.003906,5.0546875 11,5 6.9960938,5.0546875 Z" style="fill:#ffffff;opacity:.1"/>
</svg>

<svg xmlns="http://www.w3.org/2000/svg" width="22" height="22" version="1.1" viewBox="0 0 22 22">
 <circle style="opacity:0.2" cx="11" cy="11.5" r="10"/>
 <circle style="fill:#c44652" cx="11" cy="11" r="10"/>
 <path d="M 6,3.4999494 V 5.4999495 L 5.1533205,6.456004 C 3.8993603,7.20104 2.9542699,7.7049655 2,8.4999495 l 2,1.0000005 -3.5,2 4,0.5 L 1,15.999949 5,14.99995 v 0.999999 l 2,-0.5 -0.5,1.5 3.5,-1.5 h 1 1 l 3.5,1.5 -0.5,-1.5 2,0.5 V 14.99995 l 4,0.999999 -3.5,-3.999999 4,-0.5 -3.5,-2 2,-1.0000005 C 19.04573,7.7049655 18.100639,7.20104 16.846679,6.456004 L 16,5.4999495 V 3.4999494 L 14,4.4999495 V 3.9999494 L 13,4.4999495 V 3.9999494 L 11,4.4999495 9,3.9999494 V 4.4999495 L 8,3.9999494 v 0.5000001 z" style="opacity:0.2"/>
 <path style="opacity:0.2;fill:#ffffff" d="M 11,1 A 10,10 0 0 0 1,11 10,10 0 0 0 1.01075,11.291 10,10 0 0 1 11,1.5 10,10 0 0 1 20.9895,11.209 10,10 0 0 0 21,11 10,10 0 0 0 11,1 Z"/>
 <path style="fill:#393939" d="M 6,3 V 5 L 5.1533205,5.9560545 C 3.8993603,6.7010905 2.9542699,7.205016 2,8 l 2,1 -3.5,2 4,0.5 -3.5,4 4,-1 v 1 L 7,15 6.5,16.5 10,15 h 1 1 l 3.5,1.5 -0.5,-1.5 2,0.5 v -1 l 4,1 -3.5,-4 4,-0.5 L 18,9 20,8 C 19.04573,7.205016 18.100639,6.7010905 16.846679,5.9560545 L 16,5 V 3 L 14,4 V 3.5 L 13,4 V 3.5 L 11,4 9,3.5 V 4 L 8,3.5 V 4 Z"/>
 <path d="m 4,2.4999497 -0.9973445,0.78125 c -0.036999,1.1865805 0.3177607,2.240657 0.7437939,3.2714845 0.7407736,1.7177505 2.7424224,3.3561598 3.9502319,4.4125698 0.7662898,0.686448 0.9727114,1.291736 1.0823554,1.896484 0.127008,0.700522 0.203641,1.459974 0.2833503,2.628907 0.266544,1.521169 0.411787,2.999286 0.611494,3.82571 C 9.856834,19.508131 11,19.499949 11,19.499949 c 0,0 1.143167,0.0082 1.32612,-0.183594 0.199707,-0.826424 0.344951,-2.304541 0.611494,-3.82571 0.07971,-1.168933 0.156342,-1.928385 0.28335,-2.628907 0.109644,-0.604748 0.316065,-1.210036 1.082356,-1.896484 1.207808,-1.05641 3.209458,-2.6948193 3.950231,-4.4125698 0.426033,-1.0308275 0.780793,-2.084904 0.743794,-3.2714845 L 18,2.4999497 V 3.2792466 L 15.003361,5.5536607 11,5.4999497 6.9966402,5.5536607 4,3.2792466 Z" style="opacity:0.2"/>
 <path style="fill:#505050" d="m 4,2.0000005 -0.9973445,0.78125 c -0.036999,1.1865805 0.3177607,2.240657 0.7437939,3.2714845 0.7407736,1.7177505 2.7424224,3.35616 3.9502319,4.41257 0.7662898,0.686448 0.9727114,1.291736 1.0823554,1.896484 0.127008,0.700522 0.203641,1.459974 0.2833503,2.628907 0.266544,1.521169 0.411787,2.999286 0.611494,3.82571 C 9.856834,19.008182 11,19 11,19 c 0,0 1.143167,0.0082 1.32612,-0.183594 0.199707,-0.826424 0.344951,-2.304541 0.611494,-3.82571 0.07971,-1.168933 0.156342,-1.928385 0.28335,-2.628907 0.109644,-0.604748 0.316065,-1.210036 1.082356,-1.896484 1.207808,-1.05641 3.209458,-2.6948195 3.950231,-4.41257 0.426033,-1.0308275 0.780793,-2.084904 0.743794,-3.2714845 L 18,2.0000005 V 2.7792974 L 15.003361,5.0537115 11,5.0000005 6.9966402,5.0537115 4,2.7792974 Z"/>
 <path d="M 7.133956,7.1776775 A 1.6679336,1.6679336 0 0 0 7,7.832016 1.6679336,1.6679336 0 0 0 8.6679335,9.49995 1.6679336,1.6679336 0 0 0 10,8.8323845 Z" style="opacity:0.2"/>
 <path style="fill:#eb6b00" d="M 7.133956,6.677728 A 1.6679336,1.6679336 0 0 0 7,7.3320665 1.6679336,1.6679336 0 0 0 8.6679335,9 1.6679336,1.6679336 0 0 0 10,8.332435 Z"/>
 <path style="opacity:0.2" d="M 14.866044,7.1776775 A 1.6679336,1.6679336 0 0 1 15,7.832016 1.6679336,1.6679336 0 0 1 13.332067,9.49995 1.6679336,1.6679336 0 0 1 12,8.8323845 Z"/>
 <path d="M 14.866044,6.677728 A 1.6679336,1.6679336 0 0 1 15,7.3320665 1.6679336,1.6679336 0 0 1 13.332067,9 1.6679336,1.6679336 0 0 1 12,8.332435 Z" style="fill:#eb6b00"/>
 <path style="opacity:0.4" d="m 12.5,11.989258 c -0.520728,0.20921 -0.96508,0.541721 -1.5,0.5 V 12.5 C 10.46508,12.54172 10.020728,12.20921 9.5,12 l 0.512696,5.454101 c 0.03907,0.408029 0.04785,0.46255 0.388671,0.5 C 10.624089,17.991521 10.79508,18.005725 11,18 v -0.01074 c 0.20492,0.0057 0.375911,-0.0085 0.598633,-0.0459 0.340829,-0.03745 0.349607,-0.09099 0.388671,-0.499023 z"/>
 <path d="m 10.5,16.489207 c -0.217046,0.178857 -0.406667,0.414354 -0.561523,0.675781 l 0.07422,0.789063 c 0.03907,0.408028 0.04785,0.46255 0.388671,0.5 0.07223,0.01214 0.133974,0.01803 0.198242,0.02539 H 11 11.31543 c 0.08949,-0.0077 0.180028,-0.0188 0.283203,-0.03614 0.340829,-0.03745 0.349607,-0.09099 0.388672,-0.499024 l 0.07324,-0.780273 C 11.905813,16.90304 11.716732,16.667805 11.5,16.489207 v 1 H 11 10.5 Z" style="opacity:0.2"/>
 <path style="fill:#ffffff" d="m 10.5,15.989258 c -0.217046,0.178856 -0.406667,0.414353 -0.561523,0.675781 l 0.07422,0.789062 c 0.03907,0.408029 0.04785,0.46255 0.388671,0.5 0.07223,0.01213 0.133974,0.01803 0.198242,0.02539 H 11 11.31543 c 0.08949,-0.0077 0.180028,-0.0188 0.283203,-0.03614 0.340829,-0.03745 0.349607,-0.091 0.388672,-0.499023 l 0.07324,-0.780274 C 11.905813,16.403091 11.716732,16.167856 11.5,15.989258 v 1 H 11 10.5 Z"/>
 <path d="m 12.5,12.489207 c -0.520728,0.209211 -0.96508,0.541722 -1.5,0.5 v 0.01074 c -0.534208,0.04167 -0.978214,-0.289764 -1.498047,-0.499023 0.05801,0.702664 0.437833,1.537379 0.998047,1.999023 v -1 h 0.5 0.5 v 1 c 0.563278,-0.464169 0.945233,-1.305698 1,-2.010742 z" style="opacity:0.2"/>
 <path style="fill:#ffffff" d="m 12.5,11.989258 c 0,0 -0.971813,0.508988 -1.5,0.510742 C 10.473679,12.5017 9.501953,12.000998 9.501953,12.000998 9.559959,12.703641 9.939786,13.538356 10.5,14 v -1 h 0.5 0.5 v 1 c 0.563278,-0.46417 0.945233,-1.305698 1,-2.010742 z"/>
 <path style="opacity:0.1;fill:#ffffff" d="M 7.133789,6.6777345 A 1.6679336,1.6679336 0 0 0 7,7.332031 1.6679336,1.6679336 0 0 0 7.02051,7.5810545 1.6679336,1.6679336 0 0 1 7.133791,7.1777345 l 2.550782,1.472656 A 1.6679336,1.6679336 0 0 0 10,8.332031 Z"/>
 <path style="opacity:0.1;fill:#ffffff" d="M 14.866211,6.6777345 12,8.332031 a 1.6679336,1.6679336 0 0 0 0.31543,0.3183595 l 2.550781,-1.472656 a 1.6679336,1.6679336 0 0 1 0.113281,0.40332 A 1.6679336,1.6679336 0 0 0 15,7.332031 1.6679336,1.6679336 0 0 0 14.866211,6.6777345 Z"/>
 <path style="opacity:0.1;fill:#ffffff" d="M 4,2 3.0019531,2.78125 c -0.00515,0.1650356 0.014289,0.3222188 0.023437,0.4824219 L 4,2.5 Z m 14,0 v 0.5 l 0.974609,0.7636719 c 0.0091,-0.1602031 0.02858,-0.3173863 0.02344,-0.4824219 z M 4,2.7792969 v 0.5 L 6.9960938,5.5527344 11,5.5 15.003906,5.5527344 18,3.2792969 v -0.5 L 15.003906,5.0546875 11,5 6.9960938,5.0546875 Z"/>
</svg>
